src/svg/inbox.svg

<svg height="16" width="14" xmlns="http://www.w3.org/2000/svg" viewBox="0 0 14 16">
  <path d="M14 9l-1.13-7.14c-0.08-0.48-0.5-0.86-1-0.86H2.13c-0.5 0-0.92 0.38-1 0.86L0 9v5c0 0.55 0.45 1 1 1h12c0.55 0 1-0.45 1-1V9z m-3.28 0.55l-0.44 0.89c-0.17 0.34-0.52 0.56-0.91 0.56H4.61c-0.38 0-0.72-0.22-0.89-0.55l-0.44-0.91c-0.17-0.33-0.52-0.55-0.89-0.55H1l1-7h10l1 7h-1.38c-0.39 0-0.73 0.22-0.91 0.55z" />
</svg>

<?xml version="1.0" encoding="UTF-8" standalone="no"?>
<svg width="14px" height="16px" viewBox="0 0 14 16" version="1.1" xmlns="http://www.w3.org/2000/svg" xmlns:xlink="http://www.w3.org/1999/xlink">
    <!-- Generator: Sketch 3.7.1 (28215) - http://www.bohemiancoding.com/sketch -->
    <title>inbox</title>
    <desc>Created with Sketch.</desc>
    <defs></defs>
    <g id="Octicons" stroke="none" stroke-width="1" fill="none" fill-rule="evenodd">
        <g id="inbox" fill="#000000">
            <path d="M14,9 L12.87,1.86 C12.79,1.38 12.37,1 11.87,1 L2.13,1 C1.63,1 1.21,1.38 1.13,1.86 L0,9 L0,14 C0,14.55 0.45,15 1,15 L13,15 C13.55,15 14,14.55 14,14 L14,9 L14,9 Z M10.72,9.55 L10.28,10.44 C10.11,10.78 9.76,11 9.37,11 L4.61,11 C4.23,11 3.89,10.78 3.72,10.45 L3.28,9.54 C3.11,9.21 2.76,8.99 2.39,8.99 L1,8.99 L2,1.99 L12,1.99 L13,8.99 L11.62,8.99 C11.23,8.99 10.89,9.21 10.71,9.54 L10.72,9.55 Z" id="Shape"></path>
        </g>
    </g>
</svg>
